!!!ONB: MCCC : ILB0173_04 : Extracted Monophonic Melody
!!!COM: Beethoven, Ludwig van
!!!OPR: Piano Sonata No.12
!!!OMV: 4
!!!SCT: Op.26
!!!ODT: 1800///
**kern
*thru
*staff1
*Ipiano
*>A
*clefG2
*k[b-e-a-d-]
*A-:
*M2/4
*MM120
16ee-
16cc
16ff
16a
=1
16dd-
16b-
16ee-
16g
16cc
16a-
16dd-
16f
=2
16b-
16g
16cc
16e
16a-
16f
16b-
16d
=3
16g
16e-
16d
16e-
16g
16e-
16a-
16e-
=4
16b-
16e-
16cc
16e-
16dd-
16e-
16dd
16e-
=5
16ee-
16e-
16ee-
16e-
16ee-
16e-
16ee-
16e-
=6
16ee-
16e-
16ee-
16e-
16cc
16ee-
16a
16ff
=7
16b-
16dd-
16g
16ee-
16a-
16cc
16f
16dd-
=8
16g
16b-
16e
16cc
16f
16a-
16d
16b-
=9
8e-
8r
8ddd-
8ccc
=10
8bb-
8aa-
8gg
8ff
=11
8ee-
8ee-
8ee-
8ee-
=12
8ee-
8r
16c
16cc
16e
16cc
=13
16g
16cc
16b
16cc
16b-
16cc
16g
16cc
=14
16a-
16cc
16f
16cc
8aa-
8ff
=15
8dd
8b-
8cc
8dd
=16
8ee-
8gg
16e-
16ee-
16g
16ee-
=17
16b-
16ee-
16dd
16ee-
16dd-
16ee-
16b-
16ee-
=18
16cc
16ee-
16cc
16ee-
16dd-
16ee-
16cc
16ee-
=19
16cc
16ee-
16b-
16dd-
16a-
16cc
16g
16b-
=20
8a-
8r
8bb-
8gg
=21
8ee
8cc
8dd
8ee
=22
8ff
8aa-
16b-
16bb-
16dd
16bb-
=23
16ff
16bb-
16aa
16bb-
16aa-
16bb-
16ff
16bb-
=24
16gg
16bb-
16ee-
16bb-
8ddd-
8bb-
=25
8gg
8ee-
8ff
8gg
=26
8aa-
16ccc
16eee-
16ddd-
16eee-
16ccc
16eee-
=27
16ccc
16eee-
16bb-
16ddd-
16aa-
16ccc
16gg
16bb-
=28
8aa-
8r
4r
=29
2r
=30
8r
8gg
16gg
16ee-
16aa-
16cc
=31
16ff
16dd
16gg
16b
16ee-
16cc
16ff
16a
=32
8dd
8bb-
8r
8bb-
=33
8r
8ddd
8r
8fff
=34
8ddd
8bb-
8r
8bb-
=35
8r
8ddd
8r
8fff
=36
8ddd
8bb-
16aa-
16ff
16bb-
16dd
=37
16aa-
16ff
16bb-
16dd
16aa-
16ff
16bb-
16dd
=38
16aa-
16ff
16bb-
16dd
16aa-
16ff
16bb-
16dd
=39
16aa-
16ff
16bb-
16dd
16aa-
16ff
16ccc
16dd
=40
16aa-
16ff
16bb-
16dd
16aa-
16ff
16bb-
16dd
=41
16aa-
16ff
16bb-
16dd
16aa-
16ff
16bb-
16dd
=42
8gg
16ee-
16dd
16cc
16b-
16a-
16g
=43
16f
16e-
16d
16c
16B-
16A-
16G
16F
=44
8E-
16gg
16ff
24ee-
24dd
24cc
24b-
24a-
24g
=45
16f
16e-
16d
16c
16B-
16A-
16G
16F
=46
8E-
16bb-
16aa-
32gg
32ff
32ee-
32dd
32cc
32b-
32a-
32g
=47
16f
16e-
16d
16c
16B-
16A-
16G
16F
=48
8E-
8r
16g
16e-
16a-
16f
=49
4r
16b-
16g
16cc
16a-
=50
4r
16dd-
16b-
16dd
16b
=51
16ee-
16cc
16dd
16b
16ee-
16cc
16dd
16b
=52
16ee-
16cc
16dd
16b
16ee-
16cc
16ff
16a
=53
16dd-
16b-
16ee-
16g
16cc
16a-
16dd-
16f
=54
16b-
16g
16cc
16e
16a-
16f
16b-
16d
=55
16g
16e-
16d
16e-
16g
16e-
16a-
16e-
=56
16b-
16e-
16cc
16e-
16dd-
16e-
16dd
16e-
=57
16ee-
16e-
16ee-
16e-
16ee-
16e-
16ee-
16e-
=58
16ee-
16e-
16ee-
16e-
16cc
16ee-
16a
16ff
=59
16b-
16dd-
16g
16ee-
16a-
16cc
16f
16dd-
=60
16g
16b-
16e
16cc
16f
16a-
16d
16b-
=61
8e-
8r
8ddd-
8ccc
=62
8bb-
8aa-
8gg
8ff
=63
8ee-
8ee-
8ee-
8ee-
=64
8ee-
8r
16c
16cc
16e
16cc
=65
16g
16cc
16b
16cc
16b-
16cc
16g
16cc
=66
16a-
16cc
16f
16cc
8aa-
8ff
=67
8dd
8b-
8cc
8dd
=68
8ee-
8gg
16e-
16ee-
16g
16ee-
=69
16b-
16ee-
16dd
16ee-
16dd-
16ee-
16b-
16ee-
=70
16cc
16ee-
16cc
16ee-
16dd-
16ee-
16cc
16ee-
=71
16cc
16ee-
16b-
16dd-
16a-
16cc
16g
16b-
=72
8a-
8r
8bb-
8gg
=73
8ee
8cc
8dd
8ee
=74
8ff
8aa-
16b-
16bb-
16dd
16bb-
=75
16ff
16bb-
16aa
16bb-
16aa-
16bb-
16ff
16bb-
=76
16gg
16bb-
16ee-
16bb-
8ddd-
8bb-
=77
8gg
8ee-
8ff
8gg
=78
8aa-
16ccc
16eee-
16eee-
16eee-
16ccc
16eee-
=79
16ccc
16eee-
16bb-
16ddd-
16aa-
16ccc
16gg
16bb-
=80
8aa-
8r
16c
16G
16c
16G
=81
*>B
16c
16G
16d
16B
16e-
16c
16f
16d
=82
16g
16e-
16b
16g
16cc
16a
16dd
16b
=83
16ee-
16cc
16ff
16dd
8gg
8bb
=84
8ccc
8r
16c
16G
16c
16G
=85
16c
16G
16d
16B
16e-
16c
16f
16d
=86
16g
16e-
16b
16g
16cc
16a
16dd
16b
=87
16ee-
16cc
16ee-
16cc
8dd
8ff#
=88
*>B1
8gg
8r
16c
16G
16c
16G
=89
*>B
16c
16G
16d
16B
16e-
16c
16f
16d
=90
16g
16e-
16b
16g
16cc
16a
16dd
16b
=91
16ee-
16cc
16ff
16dd
8gg
8bb
=92
8ccc
8r
16c
16G
16c
16G
=93
16c
16G
16d
16B
16e-
16c
16f
16d
=94
16g
16e-
16b
16g
16cc
16a
16dd
16b
=95
16ee-
16cc
16ee-
16cc
8dd
8ff#
=96
*>B2
8gg
8r
16b-
16g
16b-
16g
=97
*>C
16b-
16g
16cc
16a
16dd
16b-
8ff#
=98
8gg
8r
16b-
16g
16b-
16g
=99
16b-
16g
16b-
16g
16b-
16g
8ee
=100
8ff
8r
16a-
16f
16a-
16f
=101
16a-
16f
16b-
16g
16cc
16a-
8ee
=102
8ff
8r
16a-
16f
16a-
16f
=103
16a-
16f
16a-
16f
16a-
16f
8dd
=104
8ee-
8r
16g
16e-
16g
16e-
=105
16g
16e-
16a-
16f
16a
16f#
16b-
16g
=106
16cc-
16a-
16cc
16a
16dd-
16b-
16dd
16b
=107
16ee-
16cc
16dd
16b
16ee-
16cc
16dd
16b
=108
16ee-
16cc
16dd
16b
16ee-
16cc
16ff
16a
=109
16dd-
16b-
16ee-
16g
16cc
16a-
16dd-
16f
=110
16b-
16g
16cc
16e
16a-
16f
16b-
16d
=111
16g
16e-
16d
16e-
16g
16e-
16a-
16e-
=112
16b-
16e-
16cc
16e-
16dd-
16e-
16dd
16e-
=113
16ee-
16e-
16ee-
16e-
16ee-
16e-
16ee-
16e-
=114
16ee-
16e-
16ee-
16e-
16cc
16ee-
16a
16ff
=115
16b-
16dd-
16g
16ee-
16a-
16cc
16f
16dd-
=116
16g
16b-
16e
16cc
16f
16a-
16d
16b-
=117
8e-
8r
8ddd-
8ccc
=118
8bb-
8aa-
8gg
8ff
=119
8ee-
8ee-
8ee-
8ee-
=120
8ee-
8r
16c
16cc
16e
16cc
=121
16g
16cc
16b
16cc
16b-
16cc
16g
16cc
=122
16a-
16cc
16f
16cc
8aa-
8ff
=123
8dd
8b-
8cc
8dd
=124
8ee-
8gg
16e-
16ee-
16g
16ee-
=125
16b-
16ee-
16dd
16ee-
16dd-
16ee-
16b-
16ee-
=126
16cc
16ee-
16cc
16ee-
16dd-
16ee-
16cc
16ee-
=127
16cc
16ee-
16b-
16dd-
16a-
16cc
16g
16b-
=128
8a-
8r
8bb-
8gg
=129
8ee
8cc
8dd
8ee
=130
8ff
8aa-
16b-
16bb-
16dd
16bb-
=131
16ff
16bb-
16aa
16bb-
16aa-
16bb-
16ff
16bb-
=132
16gg
16bb-
16ee-
16bb-
8ddd-
8bb-
=133
8gg
8ee-
8ff
8gg
=134
8aa-
16ccc
16eee-
16ddd-
16eee-
16ccc
16eee-
=135
16ccc
16eee-
16bb-
16ddd-
16aa-
16ccc
16gg
16bb-
=136
8aa-
8r
16a-
16cc
16f
16dd-
=137
16g
16b-
16e
16cc
16f
16a-
16d
16b-
=138
8g
8gg
16gg
16ee-
16aa-
16cc
=139
16ff
16dd
16gg
16b
16ee-
16cc
16ff
16a
=140
8dd-
8bb-
16b-
16dd-
16g
16ee-
=141
16a-
16cc
16f
16dd-
16g
16b-
16e
16cc
=142
8a-
8aa-
16aa-
16ff
16bb-
16dd
=143
16gg
16ee-
16aa-
16cc
16ff
16dd
16gg
16b
=144
8ee-
8ccc
8dd-
8bb-
=145
8dd-
8bb-
8cc
8aa-
=146
8b-
8gg
8r
8ee-
=147
8r
8gg
8r
8bb-
=148
8gg
8ee-
8r
8ee-
=149
8r
8gg
8r
8bb-
=150
8gg
8ee-
16bb-
16eee-
16gg
16eee-
=151
16bb-
16ddd-
16gg
16eee-
16bb-
16ddd-
16gg
16eee-
=152
16bb-
16ddd-
16gg
16eee-
16bb-
16ddd-
16gg
16eee-
=153
16bb-
16ddd-
16gg
16eee-
16bb-
16ddd-
16gg
16eee-
=154
16bb-
16ddd-
16gg
16eee-
16bb-
16ddd-
16gg
16eee-
=155
16bb-
16ddd-
16gg
16eee-
16bb-
16ddd-
16gg
16eee-
=156
8ccc
16aa-
16gg
16ff
16ee-
16dd-
16cc
=157
16b-
16a-
16g
16f
16e-
16d-
16c
16B-
=158
8A-
16ccc
16bb-
24aa-
24gg
24ff
24ee-
24dd-
24cc
=159
16b-
16a-
16g
16f
16e-
16d-
16c
16B-
=160
8A-
32eee-
32ddd-
32ccc
32bb-
24aa-
24gg
24ff
24ee-
24dd-
24cc
=161
16b-
16a-
16g
16f
16e-
16d-
16c
16B-
=162
8A-
8r
16aa-
16ff
16bb-
16dd
=163
16gg-
16ee-
16aa-
16cc
16ff
16dd-
16gg-
16b-
=164
8gg-
8ff
16dd-
16b-
16ff-
16g
=165
16b-
16g
16dd-
16f-
16g
16f-
16b-
16d-
=166
16a-
16e-
16cc
16c
16a-
16f
16b-
16d
=167
16g-
16e-
16a-
16c
16f
16d-
16g-
16B-
=168
8g-
8f
16d-
16B-
16f-
16G
=169
2r
=170
2r
=171
2r
=172
2r
=173
16B-
16G
16d-
16F-
16G
16F-
16B-
16D-
=174
16A-
16E-
16c
16C
16E-
16C
16A-
16AA-
=175
16C
16AA-
16E-
16EE-
16AA-
16EE-
16C
16CC
=176
2r
=177
4r
==
*-
